X:1
T:Title
%%score { 1 | ( 2 3 ) }
L:1/8
M:4/4
K:A
V:1 treble nm="Grand Piano"
V:2 bass 
V:3 bass 
V:1
 z4 z2[Q:1/4=110] F2 | F3 E [A,D]2 [A,E]2 | [DF]2 [CE]2 F2 =G2 | A3 =G F2 G2 | A4 z2 AA | %5
 A3 G [CF]2 [CG]2 | [FA]2 [^EG]2 A2 B2 | c3 B A2 B2 | c4 z2 cc | c3 B [EA]2 [EB]2 | %10
 [Ac]2 [GB]2 c2 d2 | e3 d c2 d2 | e4 z2 [Fd]2 | [Fd]6 [FA]2 | [=GB]4 [Gd]4 | [Fd]8- | %16
[M:3/4] [Fd]4 z2 |] %17
V:2
 z4 z2 [D,F,A,D]2 | [D,F,D]4 z4 | [D,F,]2 [A,,E,]2 [D,F,D]2 [E,=G,E]2 | %3
 [F,A,F]3 [E,=G,E] [D,F,D]2 [E,G,E]2 | [F,A,F]4 z2[K:treble] FF | %5
 [F,A,CF]3 [C,G,C] [A,,F,]2 [C,G,]2 | [F,A,]2 [C,G,]2[K:treble] [F,A,F]2 [G,B,G]2 | %7
 [A,CA]3 [G,B,G] [F,A,F]2 [G,B,G]2 | [A,CA]4 z2 AA | [A,CEA]3[K:bass] [E,B,E] [C,A,]2 [E,B,]2 | %10
 [A,C]2 [E,B,]2[K:treble] [A,CA]2 [B,DB]2 | [CEc]3 [B,DB] [A,CA]2 [B,DB]2 | %12
 [CEc]4 z2[K:bass] [D,A,]2 | [D,A,]6 [D,D]2 | [D,D]4 [D,B,]4 | [D,A,]8- |[M:3/4] [D,A,]4 z2 |] %17
V:3
 x8 | A,3- [A,,E,A,] [F,,D,]2 [A,,E,]2 | x8 | x8 | z4 z2[K:treble] [F,A,]2 | x8 | x4[K:treble] x4 | %7
 x8 | z4 z2 [A,C]2 | x3[K:bass] x5 | x4[K:treble] x4 | x8 | x6[K:bass] x2 | x8 | x8 | x8 | %16
[M:3/4] x6 |] %17

